assets/icons/qvision/pageview.svg

<svg xmlns="http://www.w3.org/2000/svg" height="24" viewBox="0 0 24 24" width="24"><path d="M0 0h24v24H0z" fill="none"/><path d="M11.5 9C10.12 9 9 10.12 9 11.5s1.12 2.5 2.5 2.5 2.5-1.12 2.5-2.5S12.88 9 11.5 9zM20 4H4c-1.1 0-2 .9-2 2v12c0 1.1.9 2 2 2h16c1.1 0 2-.9 2-2V6c0-1.1-.9-2-2-2zm-3.21 14.21l-2.91-2.91c-.69.44-1.51.7-2.39.7C9.01 16 7 13.99 7 11.5S9.01 7 11.5 7 16 9.01 16 11.5c0 .88-.26 1.69-.7 2.39l2.91 2.9-1.42 1.42z"/></svg>

<svg width="24" height="24" viewBox="0 0 24 24" fill="none" xmlns="http://www.w3.org/2000/svg">
<g clip-path="url(#clip0_147_4502)">
<path d="M11.5 9C10.12 9 9 10.12 9 11.5C9 12.88 10.12 14 11.5 14C12.88 14 14 12.88 14 11.5C14 10.12 12.88 9 11.5 9ZM20 4H4C2.9 4 2 4.9 2 6V18C2 19.1 2.9 20 4 20H20C21.1 20 22 19.1 22 18V6C22 4.9 21.1 4 20 4ZM16.79 18.21L13.88 15.3C13.19 15.74 12.37 16 11.49 16C9.01 16 7 13.99 7 11.5C7 9.01 9.01 7 11.5 7C13.99 7 16 9.01 16 11.5C16 12.38 15.74 13.19 15.3 13.89L18.21 16.79L16.79 18.21Z" fill="#323232"/>
</g>
<defs>
<clipPath id="clip0_147_4502">
<rect width="24" height="24" fill="white"/>
</clipPath>
</defs>
</svg>
